img/sticker-hit.svg

<svg width="34" height="27" fill="none" xmlns="http://www.w3.org/2000/svg"><path d="M6.94683.795067C6.05965 3.40361 5.28819 6.03161 4.56495 8.66935 4.00878 5.8766 3.69898 3.03958 3.6392.191599c0-.418534-1.87078-.1070668-1.86114.506135.12619 4.082056.68876 8.138426 1.67792 12.098566C2.30844 17.2542 1.2284 21.7315.00371283 26.1991c-.09643213.3796 1.71648717.1363 1.84185717-.3407.86789-3.173 1.65863-6.3558 2.45902-9.5386.7811 3.1244 1.59113 6.239 2.19865 9.4024.09643.4964 1.92864.0487 1.86114-.5062-.82932-4.341-2.04436-8.5945-3.03761-12.8869C6.35859 8.34815 7.45792 4.38667 8.77904.464133c.12536-.360134-1.67792-.146-1.83221.330934zM20.8427 1.31093c.0482-.973331-1.8515-.778664-1.9286.1168-.0048.0778-.0048.15581 0 .23361-.0455.06086-.0783.13039-.0965.2044-1.0829 4.30688-2.3799 8.55596-3.8862 12.73126-.6172 1.8785-1.0993 3.7862-1.6104 5.694-.1254-6.463-.1254-12.89672-.1543-19.320733 0-.97333497-1.9286-.749468-1.9286.136263 0 8.10789 0 16.19627.2893 24.33337-.025.0957-.025.1963 0 .292l.0578.4283c.1157.8371 1.9287.4672 1.9287-.3018 1.5718-4.0588 2.3818-8.3609 3.7512-12.4976.5014-1.5184 1.0125-3.027 1.5043-4.53572-.0675 5.84002.0579 11.68002.2025 17.52002 0 .9734 1.5236.7495 1.8419.0584l.0578-.1168c.0531-.079.0815-.1722.0815-.2676 0-.0955-.0284-.1887-.0815-.2677-.2411-8.2344-.4146-16.33258-.0289-24.44047zM33.3017.201332c-3.0366.288762-6.0926.305048-9.1321.048667-.4822 0-2.1601.827331-1.1861.876001.974.04867 2.1119.10707 3.163.146-.0965.07787-.164.16547-.1543.25307.2796 8.18575-1.0222 16.78033.1832 24.88823.0579.4088 1.9286 0 1.8611-.5062-1.1861-8.0105.0675-16.54668-.1735-24.59617 1.7171.02391 3.4339-.06387 5.1398-.2628.8197-.077863 1.6104-1.0025312.2989-.846798z" fill="#231F20"/></svg>

<svg width="34" height="27" viewBox="0 0 34 27" fill="none" xmlns="http://www.w3.org/2000/svg">
<path d="M6.94683 0.795067C6.05965 3.40361 5.28819 6.03161 4.56495 8.66935C4.00878 5.8766 3.69898 3.03958 3.6392 0.191599C3.6392 -0.226935 1.76842 0.0845322 1.77806 0.697734C1.90425 4.77979 2.46682 8.83616 3.45598 12.7963C2.30844 17.2542 1.2284 21.7315 0.00371283 26.1991C-0.0927193 26.5787 1.7202 26.3354 1.84557 25.8584C2.71346 22.6854 3.5042 19.5026 4.30459 16.3198C5.08569 19.4442 5.89572 22.5588 6.50324 25.7222C6.59967 26.2186 8.43188 25.7709 8.36438 25.216C7.53506 20.875 6.32002 16.6215 5.32677 12.3291C6.35859 8.34815 7.45792 4.38667 8.77904 0.464133C8.9044 0.103999 7.10112 0.318133 6.94683 0.795067Z" fill="#231F20"/>
<path d="M20.8427 1.31093C20.8909 0.337599 18.9912 0.532266 18.9141 1.42773C18.9093 1.50553 18.9093 1.58354 18.9141 1.66134C18.8686 1.7222 18.8358 1.79173 18.8176 1.86574C17.7347 6.17262 16.4377 10.4217 14.9314 14.597C14.3142 16.4755 13.8321 18.3832 13.321 20.291C13.1956 13.828 13.1956 7.39428 13.1667 0.970267C13.1667 -0.00306797 11.2381 0.220799 11.2381 1.10653C11.2381 9.21442 11.2381 17.3028 11.5274 25.4399C11.5024 25.5356 11.5024 25.6362 11.5274 25.7319L11.5852 26.1602C11.7009 26.9973 13.5139 26.6274 13.5139 25.8584C15.0857 21.7996 15.8957 17.4975 17.2651 13.3608C17.7665 11.8424 18.2776 10.3338 18.7694 8.82508C18.7019 14.6651 18.8273 20.5051 18.9719 26.3451C18.9719 27.3185 20.4955 27.0946 20.8138 26.4035L20.8716 26.2867C20.9247 26.2077 20.9531 26.1145 20.9531 26.0191C20.9531 25.9236 20.9247 25.8304 20.8716 25.7514C20.6305 17.517 20.457 9.41882 20.8427 1.31093Z" fill="#231F20"/>
<path d="M33.3017 0.201332C30.2651 0.490094 27.2091 0.50638 24.1696 0.249999C23.6874 0.249999 22.0095 1.07733 22.9835 1.126C23.9575 1.17467 25.0954 1.23307 26.1465 1.272C26.05 1.34987 25.9825 1.43747 25.9922 1.52507C26.2718 9.71082 24.97 18.3054 26.1754 26.4133C26.2333 26.8221 28.104 26.4133 28.0365 25.9071C26.8504 17.8966 28.104 9.36042 27.863 1.31093C29.5801 1.33484 31.2969 1.24706 33.0028 1.04813C33.8225 0.970267 34.6132 0.0455988 33.3017 0.201332Z" fill="#231F20"/>
</svg>
